assets/icon-star.svg

<svg fill="none" height="16" viewBox="0 0 16 16" width="16" xmlns="http://www.w3.org/2000/svg" xmlns:xlink="http://www.w3.org/1999/xlink"><clipPath id="a"><path d="m0 0h16v16h-16z"/></clipPath><g clip-path="url(#a)"><path d="m15.144 5.439-4.317-.628-1.92701-3.911004c-.09157-.157535-.22289-.288275-.38083-.379151-.15793-.090876-.33696-.138704-.51917-.138704-.18222 0-.36124.047828-.51918.138704-.15793.090876-.28925.221616-.38082.379151l-1.927 3.912004-4.317003.627c-.184864.02651-.35861.10426-.501558.22444-.142947.12019-.249384.278-.3072534.45556-.0578696.17756-.0648596.36778-.0201782.54912.0446813.18133.1392486.34653.2729896.47688l3.123003 3.045-.737 4.3c-.03151.1839-.01094.3729.05938.5458.07032.1728.18759.3225.33855.4321.15095.1097.32958.1749.51568.1884.18609.0134.37224-.0255.53739-.1123l3.863-2.031 3.86101 2.029c.1651.0868.3513.1257.5374.1123.1861-.0135.3647-.0787.5157-.1883.1509-.1097.2682-.2594.3385-.4322.0703-.1729.0909-.3619.0594-.5458l-.737-4.3 3.125-3.043c.1334-.13026.2277-.29522.2723-.47626.0447-.18104.0378-.37095-.0199-.54828-.0576-.17733-.1636-.33501-.3061-.45526-.1425-.12024-.3158-.19824-.5003-.2252z" fill="#546bfb"/></g></svg>

<svg width="16" height="16" viewBox="0 0 16 16" fill="none" xmlns="http://www.w3.org/2000/svg">
<g clip-path="url(#clip0)">
<path d="M15.144 5.439L10.827 4.811L8.89999 0.899996C8.80842 0.742461 8.6771 0.611721 8.51916 0.520845C8.36123 0.429969 8.1822 0.382141 7.99999 0.382141C7.81777 0.382141 7.63875 0.429969 7.48081 0.520845C7.32288 0.611721 7.19156 0.742461 7.09999 0.899996L5.17299 4.812L0.855987 5.439C0.671123 5.46551 0.497377 5.54326 0.354429 5.66344C0.211482 5.78363 0.105045 5.94144 0.0471756 6.119C-0.010694 6.29656 -0.017684 6.48678 0.0269974 6.66812C0.0716787 6.84945 0.166246 7.01465 0.299987 7.145L3.42299 10.19L2.68599 14.49C2.65448 14.6739 2.67505 14.8629 2.74537 15.0358C2.81569 15.2086 2.93296 15.3583 3.08392 15.4679C3.23487 15.5776 3.4135 15.6428 3.5996 15.6563C3.78569 15.6697 3.97184 15.6308 4.13699 15.544L7.99999 13.513L11.861 15.542C12.0261 15.6288 12.2123 15.6677 12.3984 15.6543C12.5845 15.6408 12.7631 15.5756 12.9141 15.466C13.065 15.3563 13.1823 15.2066 13.2526 15.0338C13.3229 14.8609 13.3435 14.6719 13.312 14.488L12.575 10.188L15.7 7.145C15.8334 7.01474 15.9277 6.84978 15.9723 6.66874C16.017 6.4877 16.0101 6.29779 15.9524 6.12046C15.8948 5.94313 15.7888 5.78545 15.6463 5.6652C15.5038 5.54496 15.3305 5.46696 15.146 5.44L15.144 5.439Z" fill="#546BFB"/>
</g>
<defs>
<clipPath id="clip0">
<rect width="16" height="16" fill="white"/>
</clipPath>
</defs>
</svg>
